X: 77
T: In a Sacred Manner I Live
C: Teton Sioux band 1911-1914
N: Derived from sioux077.krn
O: South Dakota, U.S.A.
N: Teton Sioux Music by Frances Densmore, 1918
Z: transcribed to **kern format by Craig Sapp
L: 1/8
M: 2/4
Q: 1/4=58
K: Db clef=bass
%%linebreak <none>
F2F2 [I:setbarnb 2]| 
(F D) D D | 
B,2B,2 ]|:  
D2F2 | 
(F D) D F ||  
[M:3/4]B,2B,2B, B, | 
B,4A, A, | 
F, F,- F, F,-F,2 ||  
[M:2/4]F,2D2 | 
(D B,) B, B, | 
A,2A,2 | 
F,2B,2 ||  
[M:3/4](B, A,) A, A,F,2 ||  
[M:2/4]F,3F, | 
F,4- | 
F,4 :|]  



